X: 10062
T: THE BANKS OF ALLAN WATER
R: jig
B: K\"ohler's Violin Repository, v.1, 1885 p.6 #2
F: http://www.archive.org/details/klersviolinrepos01edin
Z: 2011 John Chambers <jc:trillian.mit.edu>
M: 6/8
L: 1/8
P: Lively
K: D
(A/G/) |\
F>GF FED | FAA (A2d) | BBd AAd | BBd AAd |\
F>GF FED | FAA (A2d) | BdB AGF | GEE E2 :|
|: g |\
f>gf fed | faa (a2g) | f>gf fed | gbb (b2g) |\
f>ga e>fg | d>ef fed | BdB AGF | GEE E2 :|

%%sep 2 1 500

